shader_type spatial;
render_mode depth_draw_always, cull_disabled;

// ============== DEPTH AND FOG UNIFORMS ==============
uniform sampler2D DEPTH_TEXTURE : hint_depth_texture, filter_linear_mipmap;
uniform float max_depth : hint_range(0.1, 200.0, 0.1) = 10.0;
uniform sampler2D SCREEN_TEXTURE : hint_screen_texture, filter_linear_mipmap;
uniform vec3 underwater_fog_color : source_color = vec3(0.0, 0.05, 0.1);
uniform float fade_start_depth : hint_range(0.0, 50.0, 0.1) = 0.5;

// ============== WAVE UNIFORMS ==============
uniform float sea_height : hint_range(0.0, 5.0) = 1.3;
uniform float sea_choppy : hint_range(0.0, 10.0) = 4.0;
uniform float sea_speed : hint_range(0.0, 5.0) = 1.5;
uniform float sea_freq : hint_range(0.0, 0.5) = 0.08;
uniform int ITER_GEOMETRY = 3;
uniform int ITER_FRAGMENT = 5;

// ============== REFRACTION UNIFORMS ==============
uniform float refraction_strength : hint_range(0.0, 2.0, 0.01) = 1.0;
uniform float refraction_distance_fade : hint_range(0.0, 100.0, 1.0) = 5.0;
uniform float normal_epsilon : hint_range(0.001, 1.0) = 0.01;
uniform float normal_smoothness_dist : hint_range(0.0, 1000.0) = 50.0;

// ============== WATER COLOR & ABSORPTION ==============
uniform vec3 base_tint_color : source_color = vec3(0.439, 0.973, 1.0);
uniform vec3 deep_color : source_color = vec3(0.0, 0.341, 0.29);
uniform vec3 water_absorption : source_color = vec3(0.3, 0.06, 0.02);

// ============== FOAM UNIFORMS ==============
uniform vec3 foam_color : source_color = vec3(1.0, 1.0, 1.0);
uniform float foam_depth_start : hint_range(0.0, 5.0, 0.01) = 0.8;
uniform float foam_depth_end   : hint_range(0.0, 5.0, 0.01) = 0.0;
uniform float foam_noise_scale : hint_range(0.0, 10.0, 0.01) = 2.0;
uniform float foam_noise_speed : hint_range(0.0, 2.0, 0.01) = 1.0;
uniform float foam_cutoff      : hint_range(0.0, 1.0, 0.01) = 0.7;
uniform float foam_crest_threshold : hint_range(0.0, 1.0, 0.01) = 0.7;
uniform float foam_crest_amount    : hint_range(0.0, 10.0, 0.1) = 2.0;

uniform vec3 foam_edge_color : source_color = vec3(0.0, 0.0, 0.05);
uniform vec2 foam_edge_offset = vec2(0.02, 0.02);
uniform float voronoi_scale   : hint_range(0.0, 50.0) = 9.0;
uniform float voronoi_strength : hint_range(0.0, 8.0) = 0.8;

// ============== UNDERWATER EFFECT UNIFORMS ==============
uniform float underwater_refraction_strength : hint_range(0.0, 2.0) = 0.6;
uniform vec3 underwater_surface_color : source_color = vec3(0.15, 0.35, 0.6);
uniform float underwater_fog_density : hint_range(0.0, 2.0) = 0.8;
uniform float underwater_absorption_scale : hint_range(0.1, 5.0) = 1.5;

uniform float custom_time;
uniform float roughness : hint_range(0.0, 1.0) = 0.125;
uniform float metallic : hint_range(0.0, 1.0) = 0.0;
uniform float specular : hint_range(0.0, 1.0) = 0.5;

// ============== VARYINGS ==============
varying vec3 world_vert;
varying float wave_height;
varying vec3 vertex_normal_world;

const mat2 octave_m = mat2(vec2(1.6, 1.2), vec2(-1.2, 1.6));

// ============== NOISE AND WAVE FUNCTIONS ==============
float hash12(vec2 p) {
    uvec2 q = uvec2(ivec2(p)) * uvec2(1597334677u, 3812015801u);
    uint n = (q.x ^ q.y) * 1597334677u;
    return float(n) * (1.0 / 4294967295.0);
}

float noise(in vec2 p) {
    vec2 i = floor(p);
    vec2 f = fract(p);
    vec2 u = f * f * (3.0 - 2.0 * f);
    return -1.0 + 2.0 * mix(mix(hash12(i + vec2(0.0, 0.0)), hash12(i + vec2(1.0, 0.0)), u.x),
                        mix(hash12(i + vec2(0.0, 1.0)), hash12(i + vec2(1.0, 1.0)), u.x), u.y);
}

float sea_octave(vec2 uv, float choppy) {
    uv += noise(uv);
    vec2 wv = 1.0 - abs(sin(uv));
    vec2 swv = abs(cos(uv));
    wv = mix(wv, swv, wv);
    return pow(1.0 - pow(wv.x * wv.y, 0.65), choppy);
}

float map(vec3 p, float time) {
    float freq = sea_freq;
    float amp = sea_height;
    float choppy = sea_choppy;
    vec2 uv = p.xz;
    uv.x *= 0.75;
    float h = 0.0;
    for (int i = 0; i < ITER_GEOMETRY; i++) {
        float d = sea_octave((uv + time * sea_speed) * freq, choppy);
        d += sea_octave((uv - time * sea_speed) * freq, choppy);
        h += d * amp;
        uv *= octave_m;
        freq *= 1.9;
        amp *= 0.22;
        choppy = mix(choppy, 1.0, 0.2);
    }
    return p.y - h;
}

float map_detailed(vec3 p, float time) {
    float freq = sea_freq;
    float amp = sea_height;
    float choppy = sea_choppy;
    vec2 uv = p.xz;
    uv.x *= 0.75;
    float h = 0.0;
    for (int i = 0; i < ITER_FRAGMENT; i++) {
        float d = sea_octave((uv + time * sea_speed) * freq, choppy);
        d += sea_octave((uv - time * sea_speed) * freq, choppy);
        h += d * amp;
        uv *= octave_m;
        freq *= 1.9;
        amp *= 0.22;
        choppy = mix(choppy, 1.0, 0.2);
    }
    return p.y - h;
}

vec3 get_normal_detailed(vec3 p, float eps, float time) {
    vec3 n;
    n.y = map_detailed(p, time);
    n.x = map_detailed(vec3(p.x + eps, p.y, p.z), time) - n.y;
    n.z = map_detailed(vec3(p.x, p.y, p.z + eps), time) - n.y;
    n.y = eps;
    return normalize(n);
}

// ============== FOAM NOISE FUNCTIONS ==============
float hash13(vec3 p) {
    uvec3 q = uvec3(ivec3(p)) * uvec3(1597334677u, 3812015801u, 2798796415u);
    uint n = (q.x ^ q.y ^ q.z) * 1597334677u;
    return float(n) * (1.0 / 4294967295.0);
}

float hash3d(vec3 p) { return hash13(p); }

vec2 hash22(vec2 p) {
    vec3 p3 = fract(vec3(p.xyx) * vec3(.1031, .1030, .0973));
    p3 += dot(p3, p3.yzx + 33.33);
    return fract((p3.xx + p3.yz) * p3.zy);
}

float voronoi(vec2 uv) {
    vec2 n = floor(uv);
    vec2 f = fract(uv);
    float m_dist = 1.0;
    for (int j = -1; j <= 1; j++) {
        for (int i = -1; i <= 1; i++) {
            vec2 g = vec2(float(i), float(j));
            vec2 o = hash22(n + g);
            o = 0.5 + 0.5 * sin(custom_time * foam_noise_speed + 6.2831 * o);
            vec2 r = g - f + o;
            float d = dot(r, r);
            m_dist = min(m_dist, d);
        }
    }
    return m_dist;
}

float noise3d(in vec3 p) {
    vec3 i = floor(p);
    vec3 f = fract(p);
    f = f * f * (3.0 - 2.0 * f);
    return mix(
        mix(
            mix(hash3d(i + vec3(0.0, 0.0, 0.0)), hash3d(i + vec3(1.0, 0.0, 0.0)), f.x),
            mix(hash3d(i + vec3(0.0, 1.0, 0.0)), hash3d(i + vec3(1.0, 1.0, 0.0)), f.x), f.y),
        mix(
            mix(hash3d(i + vec3(0.0, 0.0, 1.0)), hash3d(i + vec3(1.0, 0.0, 1.0)), f.x),
            mix(hash3d(i + vec3(0.0, 1.0, 1.0)), hash3d(i + vec3(1.0, 1.0, 1.0)), f.x), f.y), f.z);
}

float fbm_voronoi(vec2 uv) {
    float v = 0.0;
    float a = 0.5;
    vec2 shift = vec2(100.0);
    mat2 rot = mat2(vec2(cos(0.5), sin(0.5)), vec2(-sin(0.5), cos(0.5)));
    for (int i = 0; i < 3; i++) {
        float val = 1.0 - voronoi(uv);
        val = pow(val, 2.0);
        v += a * val;
        uv = rot * uv * 2.0 + shift;
        a *= 0.5;
    }
    return v;
}

// ============== DEPTH HELPER ==============
float get_linear_depth(sampler2D d_tex, vec2 uv, mat4 inv_proj) {
    float depth = texture(d_tex, uv).x;
    vec3 ndc = vec3(uv * 2.0 - 1.0, depth);
    #if CURRENT_RENDERER == RENDERER_COMPATIBILITY
        ndc.z = depth * 2.0 - 1.0;
    #endif
    vec4 view = inv_proj * vec4(ndc, 1.0);
    return -view.z / view.w;
}

// ============== VERTEX SHADER ==============
void vertex() {
    vec3 world_pos = (MODEL_MATRIX * vec4(VERTEX, 1.0)).xyz;
    wave_height = -map(world_pos, custom_time);
    VERTEX.y = wave_height;
    world_vert = (MODEL_MATRIX * vec4(VERTEX, 1.0)).xyz;

    float vertex_eps = 0.1;
    float h_center = wave_height;
    float h_x = -map(world_pos + vec3(vertex_eps, 0.0, 0.0), custom_time);
    float h_z = -map(world_pos + vec3(0.0, 0.0, vertex_eps), custom_time);
    vec3 n_geom = normalize(vec3(h_center - h_x, vertex_eps, h_center - h_z));
    vertex_normal_world = n_geom;
}

// ============== FRAGMENT SHADER ==============
void fragment() {
    // --- DETERMINE IF CAMERA IS UNDERWATER ---
    vec3 camera_world = (inverse(VIEW_MATRIX) * vec4(0.0, 0.0, 0.0, 1.0)).xyz;
    float water_height_at_camera = camera_world.y - map(camera_world, custom_time);
    bool is_underwater = camera_world.y < water_height_at_camera;

    // --- NORMALS WITH DISTANCE-BASED SMOOTHING ---
    float dist_to_cam = length(VERTEX);
    float lod_epsilon = max(normal_epsilon, dist_to_cam * 0.005);
    vec3 detailed_normal = get_normal_detailed(world_vert, lod_epsilon, custom_time);
    float smooth_factor = clamp((dist_to_cam - normal_smoothness_dist) / 200.0, 0.0, 1.0);
    vec3 final_normal = mix(detailed_normal, vertex_normal_world, smooth_factor);
    NORMAL = (VIEW_MATRIX * vec4(final_normal, 0.0)).xyz;

    // --- LINEAR DEPTH CALCULATIONS ---
    float water_linear_depth = -VERTEX.z;
    float bg_linear_depth = get_linear_depth(DEPTH_TEXTURE, SCREEN_UV, INV_PROJECTION_MATRIX);
    float thickness = max(0.0, bg_linear_depth - water_linear_depth);

    // --- REFRACTION OFFSET CALCULATION ---
    vec3 view_vertex_normal = (VIEW_MATRIX * vec4(vertex_normal_world, 0.0)).xyz;
    vec2 normal_offset = NORMAL.xy - view_vertex_normal.xy;

    float ref_dist_factor = clamp(refraction_distance_fade / max(0.1, dist_to_cam), 0.0, 1.0);
    float ref_depth_fade = smoothstep(0.0, 0.5, thickness);
    float refraction_mask = ref_dist_factor * ref_depth_fade;

    // Underwater uses different refraction strength
    float effective_refraction_strength = is_underwater ? underwater_refraction_strength : refraction_strength;

    vec2 refraction_offset = normal_offset * effective_refraction_strength * refraction_mask * 0.05;
    vec2 distorted_uv = SCREEN_UV + refraction_offset;
    distorted_uv = clamp(distorted_uv, vec2(0.001), vec2(0.999));

    float distorted_bg_depth = get_linear_depth(DEPTH_TEXTURE, distorted_uv, INV_PROJECTION_MATRIX);
    float depth_diff = distorted_bg_depth - water_linear_depth;
    float validity_blend = smoothstep(-0.1, 0.2, depth_diff);
    vec2 final_uv = mix(SCREEN_UV, distorted_uv, validity_blend);
    float final_bg_depth = mix(bg_linear_depth, distorted_bg_depth, validity_blend);

    vec3 screen_color = texture(SCREEN_TEXTURE, final_uv).rgb;
    thickness = max(0.0, final_bg_depth - water_linear_depth);

    vec3 original_color = texture(SCREEN_TEXTURE, SCREEN_UV).rgb;
    screen_color = mix(original_color, screen_color, refraction_mask * validity_blend);

    // --- DEPTH-BASED FOG & ABSORPTION ---
    if (is_underwater) {
        // Underwater: absorption based on vertical distance from camera to surface
        float water_thickness = max(0.0, water_height_at_camera - camera_world.y);
        vec3 transmittance = exp(-water_thickness * water_absorption * underwater_absorption_scale);
        vec3 surface_color = underwater_surface_color;
        vec3 absorbed = mix(surface_color, base_tint_color * 0.5, transmittance);
        
        // Blend with screen (what's above water) but with strong fog
        float fog_factor = 1.0 - exp(-water_thickness * underwater_fog_density);
        vec3 fogged = mix(screen_color, absorbed, fog_factor);
        ALBEDO = fogged;
    } else {
        // Above water: original logic
        float fade_range = max(0.001, max_depth - fade_start_depth);
        float depth_ratio = clamp((thickness - fade_start_depth) / fade_range, 0.0, 1.0);
        vec3 transmittance = exp(-thickness * water_absorption);
        vec3 water_volume_color = mix(base_tint_color, deep_color, depth_ratio);
        vec3 apparent_seabed_color = screen_color * water_volume_color;
        vec3 absorbed_color = mix(screen_color, apparent_seabed_color, transmittance);
        ALBEDO = mix(absorbed_color, underwater_fog_color, depth_ratio);
    }

    ROUGHNESS = roughness;
    METALLIC = metallic;
    SPECULAR = specular;

    // ============== FOAM CALCULATION (only above water) ==============
    if (!is_underwater) {
        float foam_mask_primary = 0.0;
        float foam_mask_shadow  = 0.0;

        // Depth and crest factors
        float depth_foam_factor = smoothstep(foam_depth_start, foam_depth_end, thickness);
        float wave_crest_factor = smoothstep(foam_crest_threshold, foam_crest_threshold - 0.1, final_normal.y);
        wave_crest_factor *= foam_crest_amount;
        float foam_level = clamp(depth_foam_factor + wave_crest_factor, 0.0, 1.0);

        // Domain warping for flow
        vec2 flow_uv = world_vert.xz * 0.5 + custom_time * 0.05 * foam_noise_speed;
        vec2 warp = vec2(
            noise(flow_uv),
            noise(flow_uv + vec2(5.2, 1.3))
        ) * 0.5;

        // Only apply foam where water is in front of geometry
        if (distorted_bg_depth > water_linear_depth) {
            vec2 foam_uv = world_vert.xz * foam_noise_scale + warp;

            // Emergence (pulsing/clumping)
            float emergence_noise = noise3d(vec3(world_vert.xz * 0.5, custom_time * 0.2 * foam_noise_speed));
            emergence_noise = smoothstep(0.0, 1.0, emergence_noise * 0.5 + 0.5);
            float effective_emergence = mix(emergence_noise, 1.0, foam_level);

            // Main foam sample
            float foam_noise_val = fbm_voronoi(foam_uv);
            foam_noise_val *= effective_emergence;

            // Shadow sample (edge thickness)
            vec2 foam_uv_shadow = (world_vert.xz + foam_edge_offset) * foam_noise_scale + warp;
            float foam_noise_shadow_val = fbm_voronoi(foam_uv_shadow);
            foam_noise_shadow_val *= effective_emergence;

            // Mask generation
            float combined_noise  = foam_noise_val + foam_level;
            float combined_shadow = foam_noise_shadow_val + foam_level;

            foam_mask_primary = smoothstep(foam_cutoff + 0.5, foam_cutoff + 0.6, combined_noise);
            float shadow_shape = smoothstep(foam_cutoff + 0.5, foam_cutoff + 0.6, combined_shadow);
            foam_mask_shadow = clamp(shadow_shape - foam_mask_primary, 0.0, 1.0);
        }

        // Voronoi internal bubble texture
        float voronoi_val = 1.0 - sqrt(voronoi(world_vert.xz * voronoi_scale + warp));
        voronoi_val = smoothstep(0.2, 0.8, voronoi_val);
        float bubble_alpha = 1.0 - clamp((1.0 - voronoi_val) * voronoi_strength, 0.0, 1.0);

        // Apply foam to albedo and roughness
        ALBEDO = mix(ALBEDO, foam_edge_color, foam_mask_shadow);
        ALBEDO = mix(ALBEDO, foam_color, foam_mask_primary * bubble_alpha);

        ROUGHNESS = mix(roughness, 0.8, (foam_mask_primary * bubble_alpha) + foam_mask_shadow);
    }
}